src/assets/icons/iconMail.svg

<svg width="34" height="33" viewBox="0 0 34 33" fill="none" xmlns="http://www.w3.org/2000/svg">
<path d="M6.53792 26.125C5.88625 26.125 5.34225 25.9132 4.90592 25.4897C4.46864 25.0653 4.25 24.5369 4.25 23.9044V9.09562C4.25 8.46312 4.46864 7.93512 4.90592 7.51162C5.34225 7.08721 5.88625 6.875 6.53792 6.875H27.4621C28.1138 6.875 28.6578 7.08721 29.0941 7.51162C29.5314 7.93512 29.75 8.46312 29.75 9.09562V23.9044C29.75 24.5369 29.5318 25.0649 29.0955 25.4884C28.6582 25.9128 28.1138 26.125 27.4621 26.125H6.53792ZM17 16.6581L5.66667 9.46688V23.9044C5.66667 24.151 5.74836 24.3535 5.91175 24.5121C6.07514 24.6707 6.28386 24.75 6.53792 24.75H27.4621C27.7161 24.75 27.9249 24.6707 28.0882 24.5121C28.2516 24.3535 28.3333 24.151 28.3333 23.9044V9.46688L17 16.6581ZM17 15.125L27.897 8.25H6.103L17 15.125ZM5.66667 9.46688V8.25V23.9044C5.66667 24.151 5.74836 24.3535 5.91175 24.5121C6.07514 24.6707 6.28386 24.75 6.53792 24.75H5.66667V9.46688Z" fill="#00296B"/>
</svg>

<svg width="34" height="33" fill="none" xmlns="http://www.w3.org/2000/svg"><path d="M6.538 26.125c-.652 0-1.196-.212-1.632-.635-.437-.425-.656-.953-.656-1.586V9.096c0-.633.219-1.16.656-1.584.436-.425.98-.637 1.632-.637h20.924c.652 0 1.196.212 1.632.637.437.423.656.951.656 1.584v14.808c0 .633-.218 1.16-.654 1.584-.438.425-.982.637-1.634.637H6.538ZM17 16.658 5.667 9.467v14.437c0 .247.081.45.245.608a.862.862 0 0 0 .626.238h20.924c.254 0 .463-.08.626-.238a.81.81 0 0 0 .245-.608V9.467L17 16.658Zm0-1.533L27.897 8.25H6.103L17 15.125ZM5.667 9.467V8.25v15.654c0 .247.081.45.245.608a.862.862 0 0 0 .626.238h-.871V9.467Z" fill="#00296B"/></svg>
